coreui/free/cil-volume-high.svg

<svg xmlns="http://www.w3.org/2000/svg" viewBox="0 0 512 512">
  <path fill="var(--ci-primary-color, currentColor)" d="M145.373,120H16V392H145.373l104,104H288V16H249.373ZM128,360H48V152h80Zm128,97.373-96-96V150.627l96-96Z" class="ci-primary"/>
  <path fill="var(--ci-primary-color, currentColor)" d="M408,256a88.1,88.1,0,0,0-88-88v32a56,56,0,0,1,0,112v32A88.1,88.1,0,0,0,408,256Z" class="ci-primary"/>
  <path fill="var(--ci-primary-color, currentColor)" d="M320,57.445V89.722C401.307,101.4,464,171.512,464,256S401.307,410.6,320,422.278v32.277C419.005,442.66,496,358.158,496,256S419.005,69.34,320,57.445Z" class="ci-primary"/>
</svg>

<svg viewBox="0 0 512 512" xmlns="http://www.w3.org/2000/svg"><g><path d="M145.373 120H16v272h129.373l104 104h38.62V16h-38.63Zm-17.38 240h-80V152h80Zm128 97.37l-96-96V150.62l96-96Z"/><path d="M408 256v0c-.06-48.58-39.43-87.95-88-88v32 0c30.92 0 56 25.07 56 56 0 30.92-25.08 56-56 56v32 0c48.57-.06 87.94-39.43 88-88Z"/><path d="M320 57.44v32.27c81.3 11.67 144 81.79 144 166.27 0 84.488-62.7 154.6-144 166.27v32.27c99.005-11.9 176-96.4 176-198.56C496 153.8 419.005 69.3 320 57.4Z"/></g></svg>
